X:451
T:Last New Vagaries,The. (p).1701.PLFD.451
M:6/4
L:1/4
Q:3/4=120
S:Playford, Dancing Master,11th Ed.,1701.
O:England
Z:Chris Partington.
K:A
A2ae2c|e3f3|edcB2A|B3E3|
FGAGAB|ABcBcd|c^dee2d|[1e6:|[2e3-e2|
|:B|G2BF2B|E3B3|edcd2e|f3-f2g|
a2cf2B|e2AG2B|edcB2A|A3-A2:|
